X:3372
T:Contradiction Reel, The
R:reel
D:Brendan Larrissey and Mike Considine: Up the Moy Road
Z:Devin McCabe
M:C|
L:1/8
K:A
~c3A BGED|CEAc dfed|cABA GABc|1defg afed:|2defg aegb||
!aA A/2A/2A aAcA|GBEB GBEg|aA A/2A/2A eAcA|~B3c defg|
!aA A/2A/2A aAcA|GBEB GBE2|agfe fedc|defg a3z||
!:aec'e aec'e|bed'e bed'e|c'ee'e c'ee'e|1dcBA EAAe:|2dcBA EAdA||
!e3e f2ec|dBcA B~E3|Bc-ce fece|(3fga gb aede|
!ceae faec|dAcA Bcdf|ecea fBdf|gebg afed||


